!!!OTL: DORT SINKET DIE SONNE IM WESTEN
!!!ARE: Europa, Mitteleuropa, Deutschland
!!!SCT: F0190
!!!YEM: Copyright 1995, estate of Helmut Schaffrath.
**kern
*ICvox
*Ivox
*M6/8
*k[f#c#]
*D:
{8A
=1
8d
8c#
8d
8.f#
16e
8d
=2
4e
8c#
4d}
{8f#
=3
8e
8c#
8c#
8.e
16d
8B
=4
[4.A
4A]}
{16A
16c#
=5
8.e
16d
8c#
8d
8e
8f#
=6
2g
8f#}
{8e
=7
8.d
16c#
8d
8e
8d
8c#
=8
2d
8r}
==
!!!AGN: Tageszeiten - Lied, Abend
!!!ONB: ESAC (Essen Associative Code) Database: FINK
!!!AMT: compound duple
!!!AIN: vox
!!!EED: Helmut Schaffrath
!!!EEV: 1.0
*-
